!!!SOCIAL_FUNCTION:	dream songs
!!!PDT:	1913
!!!OTL: No_132_Dream_Song.krn
!!!REG: Great_Lakes
!!!LANG: Non-Tone
!!!LING_GROUP: Algonquin
**kern	**kern
*staff2	*staff1
*clefF4	*clefG2
*k[b-e-a-d-g-]	*k[b-e-a-d-g-]
*M2/4	*M2/4
4r	4a-/
=1	=1
8GG-/L	4f/
8GG-/J	.
8GG-/L	8f/L
8GG-/J	8e-/J
=2	=2
8GG-/L	4.f/
8GG-/J	.
8GG-/L	.
8GG-/J	8f/
=3	=3
2r	4f/
.	4d-/
=4	=4
2r	16d-/LK
.	8.d-/J
.	8.d-/L
.	16B-/Jk
=5	=5
2r	2A-/
=6	=6
2r	8f/L
.	8f/J
.	4f/
=7	=7
2r	8d-/L
.	8d-/J
.	8.d-/L
.	16d-/Jk
=8	=8
2r	4d-/
.	8.d-/L
.	16B-/Jk
=9	=9
2r	4.A-/
.	8d-/
=10	=10
2r	4d-/
.	8.d-/L
.	16B-/Jk
*	*clefF4
=11	=11
2r	4A-\
.	4B-\
=12	=12
2r	4.A-\
.	8E-\
=13||	=13||
*M3/4	*M3/4
2.r	4.E-\
.	8A-\
.	4A-\
=14||	=14||
*M2/4	*M2/4
2r	4F\
.	8F\L
.	8E-\J
=15	=15
2r	4F\
.	4E-\
=16	=16
2r	8.D-\L
.	16D-\Jk
.	4D-\
=17	=17
2r	2D-\
==	==
*-	*-
